X: 1
T:Bourr\'ee \`a Malochet
R:Bourr\'ee
M:2/4
O:France
K:D
F4G4|A6d2|c3d e2c2|1 dcde f2d2:|2 dcded4::\
f3e d2f2|e3d c2e2|d3c B2G2|A8|\
GFGA B2G2|1 F6F2|E3F G2E2|FGFED4:|2\
F3G A2d2|cBcd e2c2|d8:|
